X:1
T: Alex. McGlashan's Farewell
C:
R:Strathspey
Q:128
K:G
M:4/4
L:1/16
|:D2|G3B d3B dBG2 D3G|E2G2 D2d2 cBA2 cBA2|G3B d3B dBG2 D3G|E2A2 F2D2 GGG2 z2D2|
G3B d3B dBG2 D3G|E2G2 D2d2 cBA2 cBA2|G3B d3B dBG2 D3G|E2A2 F2D2 GGG2 z2d2|
dB3 g3f e2d2 c2B2|A2a2 a2g2 f3e d3c|B2d2 g2d2 e2g2 d2g2|c2e2 d2c2 BAG2 z2d2|
dB3 g3f e2d2 c2B2|A2a2 a2g2 f3e d3c|B2d2 g2d2 e2g2 d2g2|e2a2 f2d2 g4z2:|
